app/src/images/icons/Clear.svg

<svg width="408" height="408" viewBox="0 0 408 408" fill="none" xmlns="http://www.w3.org/2000/svg">
<path d="M250 334.8C296.834 334.8 334.8 296.834 334.8 250C334.8 203.166 296.834 165.2 250 165.2C203.166 165.2 165.2 203.166 165.2 250C165.2 296.834 203.166 334.8 250 334.8Z" fill="#FFFCDD"/>
<path d="M327.3 250C327.04 281.93 307.03 311.69 276.69 322.59C261.565 328.006 245.139 328.636 229.643 324.397C214.147 320.157 200.331 311.252 190.07 298.89C169.55 274.06 167.19 237.75 183.69 210.23C200.19 182.71 233.45 167.68 265.09 174.15C282.56 177.793 298.257 187.304 309.574 201.102C320.891 214.9 327.146 232.155 327.3 250C327.38 259.65 342.38 259.67 342.3 250C342.135 231.049 336.213 212.596 325.318 197.088C314.424 181.581 299.072 169.752 281.3 163.17C245.22 149.88 202.78 161.65 178.63 191.51C154.48 221.37 150.84 264.16 170.73 297.34C190.73 330.73 230.3 347.96 268.41 340.45C311.16 332 342 293.16 342.3 250C342.38 240.35 327.38 240.34 327.3 250Z" fill="#231815"/>
<path d="M257.5 131.39V99.39C257.5 89.74 242.5 89.72 242.5 99.39V131.39C242.5 141.04 257.5 141.06 257.5 131.39Z" fill="#231815"/>
<path d="M197.17 143.49L181.17 115.8C176.34 107.44 163.38 114.99 168.17 123.37L184.17 151.06C189 159.42 201.96 151.87 197.17 143.49Z" fill="#231815"/>
<path d="M151.06 184.22L123.37 168.22C114.99 163.38 107.43 176.34 115.8 181.22L143.49 197.22C151.87 202.06 159.43 189.1 151.06 184.22Z" fill="#231815"/>
<path d="M131.39 242.5H99.39C89.74 242.5 89.72 257.5 99.39 257.5H131.39C141.04 257.5 141.06 242.5 131.39 242.5Z" fill="#231815"/>
<path d="M143.49 302.83L115.8 318.83C107.44 323.66 114.99 336.62 123.37 331.83L151.06 315.83C159.42 311 151.87 298.04 143.49 302.83Z" fill="#231815"/>
<path d="M184.22 348.94L168.22 376.63C163.38 385.01 176.34 392.57 181.22 384.2L197.22 356.51C202.06 348.13 189.1 340.57 184.22 348.94Z" fill="#231815"/>
<path d="M242.5 368.61V400.61C242.5 410.26 257.5 410.28 257.5 400.61V368.61C257.5 358.96 242.5 358.94 242.5 368.61Z" fill="#231815"/>
<path d="M302.83 356.51L318.83 384.2C323.66 392.56 336.62 385.01 331.83 376.63L315.83 348.94C311 340.58 298.04 348.13 302.83 356.51Z" fill="#231815"/>
<path d="M348.94 315.78L376.63 331.78C385.01 336.62 392.57 323.66 384.2 318.78L356.51 302.78C348.13 297.94 340.57 310.9 348.94 315.78Z" fill="#231815"/>
<path d="M368.61 257.5H400.61C410.26 257.5 410.28 242.5 400.61 242.5H368.61C358.96 242.5 358.94 257.5 368.61 257.5Z" fill="#231815"/>
<path d="M356.51 197.17L384.2 181.17C392.56 176.34 385.01 163.38 376.63 168.17L348.94 184.17C340.58 189 348.13 201.96 356.51 197.17Z" fill="#231815"/>
<path d="M315.78 151.06L331.78 123.37C336.62 114.99 323.66 107.43 318.78 115.8L302.78 143.49C297.94 151.87 310.9 159.43 315.78 151.06Z" fill="#231815"/>
</svg>

<?xml version="1.0" ?><svg viewBox="0 0 500 500" xmlns="http://www.w3.org/2000/svg"><defs><style>.cls-1{fill:#f8b62d;}.cls-2{fill:#231815;}.cls-3{font-size:161.72px;fill:#fff;stroke:#231815;stroke-miterlimit:10;font-family:DINAlternate-Bold, DIN Alternate;font-weight:700;}.cls-4{letter-spacing:-0.02em;}.cls-5{letter-spacing:-0.07em;}</style></defs><title/><g data-name="图层 1" id="图层_1"><circle class="cls-1" cx="250" cy="250" r="84.8"/><path class="cls-2" d="M327.3,250c-.26,31.93-20.27,61.69-50.61,72.59a78.28,78.28,0,0,1-86.62-23.7c-20.52-24.83-22.88-61.14-6.38-88.66s49.76-42.55,81.4-36.08A78.17,78.17,0,0,1,327.3,250c.08,9.65,15.08,9.67,15,0a93.46,93.46,0,0,0-61-86.83c-36.08-13.29-78.52-1.52-102.67,28.34s-27.79,72.65-7.9,105.83c20,33.39,59.57,50.62,97.68,43.11C311.16,332,342,293.16,342.3,250,342.38,240.35,327.38,240.34,327.3,250Z"/><path class="cls-2" d="M257.5,131.39v-32c0-9.65-15-9.67-15,0v32c0,9.65,15,9.67,15,0Z"/><line class="cls-2" x1="190.69" x2="174.71" y1="147.28" y2="119.59"/><path class="cls-2" d="M197.17,143.49l-16-27.69c-4.83-8.36-17.79-.81-13,7.57l16,27.69c4.83,8.36,17.79.81,13-7.57Z"/><line class="cls-2" x1="147.28" x2="119.59" y1="190.69" y2="174.71"/><path class="cls-2" d="M151.06,184.22l-27.69-16c-8.38-4.84-15.94,8.12-7.57,13l27.69,16c8.38,4.84,15.94-8.12,7.57-13Z"/><line class="cls-2" x1="131.39" x2="99.42" y1="250" y2="250"/><path class="cls-2" d="M131.39,242.5h-32c-9.65,0-9.67,15,0,15h32c9.65,0,9.67-15,0-15Z"/><line class="cls-2" x1="147.28" x2="119.59" y1="309.31" y2="325.29"/><path class="cls-2" d="M143.49,302.83l-27.69,16c-8.36,4.83-.81,17.79,7.57,13l27.69-16c8.36-4.83.81-17.79-7.57-13Z"/><line class="cls-2" x1="190.69" x2="174.71" y1="352.72" y2="380.41"/><path class="cls-2" d="M184.22,348.94l-16,27.69c-4.84,8.38,8.12,15.94,13,7.57l16-27.69c4.84-8.38-8.12-15.94-13-7.57Z"/><line class="cls-2" x1="250" x2="250" y1="368.61" y2="400.58"/><path class="cls-2" d="M242.5,368.61v32c0,9.65,15,9.67,15,0v-32c0-9.65-15-9.67-15,0Z"/><line class="cls-2" x1="309.31" x2="325.29" y1="352.72" y2="380.41"/><path class="cls-2" d="M302.83,356.51l16,27.69c4.83,8.36,17.79.81,13-7.57l-16-27.69c-4.83-8.36-17.79-.81-13,7.57Z"/><line class="cls-2" x1="352.72" x2="380.41" y1="309.31" y2="325.29"/><path class="cls-2" d="M348.94,315.78l27.69,16c8.38,4.84,15.94-8.12,7.57-13l-27.69-16c-8.38-4.84-15.94,8.12-7.57,13Z"/><line class="cls-2" x1="368.61" x2="400.58" y1="250" y2="250"/><path class="cls-2" d="M368.61,257.5h32c9.65,0,9.67-15,0-15h-32c-9.65,0-9.67,15,0,15Z"/><line class="cls-2" x1="352.72" x2="380.41" y1="190.69" y2="174.71"/><path class="cls-2" d="M356.51,197.17l27.69-16c8.36-4.83.81-17.79-7.57-13l-27.69,16c-8.36,4.83-.81,17.79,7.57,13Z"/><line class="cls-2" x1="309.31" x2="325.29" y1="147.28" y2="119.59"/><path class="cls-2" d="M315.78,151.06l16-27.69c4.84-8.38-8.12-15.94-13-7.57l-16,27.69c-4.84,8.38,8.12,15.94,13,7.57Z"/><text class="cls-3" transform="translate(-3.4 -30.77)"><tspan class="cls-4"/><tspan class="cls-5" x="98.94" y="0"/><tspan x="185.56" y="0"/></text></g></svg>
